X: 1
T: The Valley of Strathmore
C: Andy Stewart
M: 3/4
L: 1/8
K: D
DB, \
| A,4 B,D | D4   FA | A6- | A4 FA   | B4   dB | BA3  FE | E6-  | E4  FA |
| A4   F2 | F4   ED | D6- | D4 FA   | B4   dB | BA3  F2 | E6-  | E4  FA |
| d2 B3 d | c2 B3 A | B6- | B4 BB   | BB3  B2 | B2 A3 F | E6-  | E4  FA |
| A2 F3 F | F2 E3 D | D6- | D6 A,A, | B,D3 D2 | D4  B,2 | A,6- | A,2   |]
%
W: By the clear and the winding stream
W: In the valley of Strathmore
W: Where my love and I have been
W: Where we'll wander never more
W:
W: But if time was a thing man could buy
W: All the money that I have in store
W: I would give for one day by her side
W: In the valley of Strathmore
W:
W: From the glen of the golden and the green
W: I left for a land far away
W: Where sadness has never been seen
W: Aye, and joy only costs a day's pay
W:
W: In Strathmore there's a long working day
W: For a man with his hands on the plow
W: But it's work I'd be happy to do
W: If at night I were lying with you
W:
W: As I take a long draft from my glass
W: Oh, I'm drinking alone here again
W: And I try not to think of my lass
W: For the old days will ne'er come again
